X:1
T:BWV 593 - Organ Concerto in A Minor
T:BWV 593 - Organ Concerto in A Minor
T:1st Movement
T:Vivaldi/Bach
C:Vivaldi/Bach
%%score { ( 1 2 6 ) | ( 3 4 7 ) | 5 }
L:1/8
Q:1/4=92
M:4/4
K:C
V:1 treble nm="Pipe Organ" snm="Org."
V:2 treble 
V:6 treble 
V:3 bass 
V:4 bass 
V:7 bass 
V:5 bass-8 
V:1
"^Andante" .a2 .^g2 a/=g/f/e/ d/c/B/A/ | eE E^F/^G/ AA/B/ cc/d/ | eE E^F/^G/ AA/B/ cc/d/ | %3
 e2 z e e/=f/e z e | e/f/e z e e/f/e z e | f/g/f/g/ f/g/f/g/ ffdB | e/f/e/f/ e/f/e/f/ eecA | %7
 d/e/d/e/ d/e/d/e/ ddB^G | cA z e (ed)(^gd) | (bd)(fd) (ed)(fd) | (^gd)(bd) (ed)(bd) | %11
 (ed)(fd) (^gd)(ae) | fae^g a2 z e | (f_B)(fB) (eB)(eB) | (eA)(eA) (^GE)(AE) | FAE^G A>B c>d | %16
 e.A.Ae ff fe/d/ | e.A.Ae ff fMe/d/ | eA z e f/e/f z/ d/g/f/ | e/d/e z/ c/f/e/ d/c/d z/ B/e/d/ | %20
 c/B/A/B/ c/d/e/d/ c/B/A/B/ c/d/e/d/ | c/B/A/B/ c/d/e/d/ cA z e | (f_B)(fB) (eB)(eB) | %23
 (eA)(eA) (^GE)(AE) | FAE^G .A2 A>B | c2 z c dd dc/B/ | c2 z c dd dMc/B/ | c2 c4 B2- | B2 A4 ^G2 | %29
 A3/2 e/ a/c/a/c/ d/c/B/d/ =g/B/g/B/ | c/B/A/c/ f/A/f/A/ B/A/G/B/ e/G/e/G/ | %31
 A/G/F/A/ d/e/d/c/ B/A/G/d/ g/a/g/=f/ | e/d/c/G/ c/d/c/B/ A/G/F/A/ d/e/d/c/ | %33
 B/A/G/B/ E/c/E/c/ F/c/F/c/ G/c/G/c/ | A/c/A/c/ E/c/E/c/ F/c/F/c/ G/c/G/c/ | %35
 A/c/A/c/ E/c/E/c/ F/c/F/c/ G/c/G/c/ | c/g/c/g/ c/g/c/g/ c/a/c/a/ c/a/c/a/ | %37
 c/g/c/g/ c/g/c/g/ c/a/c/a/ c/a/c/a/ | gc z g a/b/a/b/ a/b/a/b/ | aafd g/a/g/a/ g/a/g/a/ | %40
 ggec f/g/f/g/ f/g/f/g/ | ffdB e/d/c/B/ A/G/F/E/ | g/f/e/d/ c/B/A/G/ a/g/f/e/ d/c/B/A/ | %43
 c'/b/a/g/ ^f/g/f/g/ a/b/b/^f/ f/b/b/^d/ | ^d/^f/f/A/ A/c/c/^F/ F/A/A/^D/ D/F/F/B,/ | %45
 B,2 z b ba/g/ ^f>e | e2 z a ag/f/ e>d | .d.d d/e/.d z .e e/f/.e | z .f f/g/.f z .g g/a/.g | %49
 a2- a/g/a/_b/ g2- g/f/g/a/ | fe/d/ P^c>d d DFA | d2 ^c2 d/=c/_B/A/ G/F/E/D/ | %52
 AA, A,=B,/^C/ DD/E/ FF/G/ | AA, A,=B,/^C/ DD/E/ FF/G/ | A/ z/ z z2 z4 | %55
 z .a' a'/_b'/.a' z .f' f'/g'/.f' | z .d' d'/e'/.d' z ._b b/c'/.b | %57
 z .g' g'/a'/.g' z .e' e'/f'/.e' | z .c' c'/d'/.c' z .a a/_b/.a | %59
 z .a' a'/_b'/.a' z .f' f'/g'/.f' | z .d' d'/e'/.d' z ._b b/c'/.b | a2[K:treble] z e (ed)(^gd) | %62
 (bd)(fd) (ed)(fd) | (^gd)(bd) (ed)(bd) | (ed)(fd) (^gd)(ae) | fae^g A>B c>d | e.A.Ae ff fe/d/ | %67
 e.A.Ae ff fMe/d/ | e/ A/B/c/ d/e/^f/^g/ a2 ^g2 | a/=g/=f/e/ d/c/B/A/ eE E^F/^G/ | %70
 AA/B/ cc/d/ eE E^F/^G/ | AA/B/ cc/d/ e[K:treble+8] .b b/c'/.b | z .^g g/a/.g z .e e/=f/.e | %73
 z .c c/d/.c z .a a/b/.a | z .f f/g/.f z .d d/e/.d | z .B B/c/.B z .g g/a/.g | %76
 z .e e/f/.e z .c c/d/.c | z .A A/B/.A z .f f/g/.f | z .d d/e/.d B[K:treble] z z e | %79
 e/f/e z e e/f/e z e | e/f/e z e f/g/f/g/ f/g/f/g/ | ffdB e/f/e/f/ e/f/e/f/ | %82
 eecA d/e/d/e/ d/e/d/e/ | ddB^G c2 z e | (f_B)(fB) (eB)(eB) | (eA)(eA) (^GE)(AE) | %86
 FAE^G A.A A/B/.A | z .B B/c/.B z .c c/d/.c | z .d d/e/.d e2- e/d/e/f/ | d2- d/c/d/e/ cB/A/ P^G>A | %90
 A2 z e (f_B)(fB) | (e_B)(eB) (eA)(eA) | %92
[Q:1/4=92] (^G[Q:1/4=64]"^.8"E)[Q:1/4=59]"^.4"(A[Q:1/4=55]"^.8"E)[Q:1/4=53] (F[Q:1/4=50]"^.6"A)[Q:1/4=48]"^.6"(E[Q:1/4=46]"^.9"^G) | %93
[Q:1/4=45]"^.3" [CEA]8 |] %94
V:2
 .[ce]2 .B2 [ce]/ x3/2 z E- | EE E2- E2 AE- | EE E2- E2 z A | B2 z B cc z c | BB z B cc z c | %5
 .d.d.d.d ddBG | .G.c.c.c ccAF | .F.B.B.B BB^GE | E2 z E E4- | E8- | E8- | E6 z E | F2 E2 E2 z E | %13
 D4 E4 | E3 F E2 z E | D2 D2 [CE]2 A>B | c3 c dd dc/B/ | c3 c dd dc/B/ | c2 z c A2 x/ d3/2 | %19
 G2 x/ c3/2 F2 x/ B3/2 | E2 z B, E2 z B, | E2 z B, E2 z E | D4 E4 | E3 F E2 z C | D2 D2 .C2 C>D | %25
 E.A,.A,E FF FE/D/ | E.A,.A,E FF FE/D/ | EA, z E F/E/D/E/ F/A/G/F/ | %28
 E/D/C/D/ E/G/F/E/ D/C/B,/C/ D/F/E/D/ | C/B,/A, x6 | x8 | x8 | x8 | x8 | x8 | x8 | x8 | x8 | %38
 x3 e ffff | ffdB eeee | eecA dddd | ddBG G/F/E/D/ x2 | x8 | x6 z/ c/c/^F/ | %44
 ^F/A/A/^D/ D/F/F/A,/ A,/C/C/[I:staff +1]^F,/ F,/A,/A,/^D,/ | x2[I:staff -1] z ^f gf/e/ ^d>e | %46
 e/=d/^c/B/ A[I:staff +1]A[I:staff -1] =fe/d/ c>d | x8 | x8 | x8 | x8 | x8 | x8 | x8 | x8 | x8 | %56
 x8 | x8 | x8 | x8 | x8 | x2[K:treble] z E E4- | E8- | E8- | E6 z E | F2 E2 E2 A>B | %66
 c3 c dd dc/B/ | c3 c dd dc/B/ | c/ x7/2 [ce]2 [Be]2 | [ce]/ x3/2 z E- EE E2- | E2 AE- EE E2- | %71
 E,2 A,A, E,[K:treble+8] z z2 | x8 | x8 | x8 | x8 | x8 | x8 | x5[K:treble] x2 B | cc z c BB z B | %80
 cc z c dddd | ddBG Gccc | ccAF FBBB | BB^GE E x2 E | D4 E4 | E3 F E2 z E | D2 D2 [CE] z x2 | x8 | %88
 x8 | x8 | x2 z E D4 | E4 E3 F | E2 z E D2 D2 | x8 |] %94
V:3
 .E2 .E2 .E2 z C | B,>A, ^G,A,/B,/ CC/D/ EC | B,>A, ^G,A,/B,/ CC/D/ z E | %3
 EE E/=F/E[K:treble] z E E/F/E | z E E/F/E z E E/F/E | DAFD D/E/D/E/ D/E/D/E/ | %6
 CGEC C/D/C/D/ C/D/C/D/ | B,FDB,[K:bass] B,/C/B,/C/ B,/C/B,/C/ | A,C/D/ EC D4- | D8- | D8- | %11
 D6 z C | D2 B,2 A,2 z C | _B,4 B,4 | A,3 C =B,2 z C | B,2 B,2 .A,2 z2 |[K:treble] A2 z A D2 z D | %17
 A2 z A D2 z D | AA,/B,/ CA, D>C[K:bass] B,/A,/B, | C>B, A,/^G,/A, B,>A, ^G,/^F,/G, | %20
 A,2 z ^G, A,2 z G, | A,2 z ^G, A,2 z C | _B,4 B,4 | A,3 C =B,2 z A, | B,2 B,2 A,>B, z2 | %25
 A,,2 z A, D2 z D, | A,,2 z A, D2 z D, | A,,>B,, C,A,, D,2 z G, | C,2 z F, B,,2 z E, | %29
 .A,,2 z/ A,/C/E/ B,/D/=G z/ G,/B,/E/ | A,/C/F z/ F,/A,/D/ G,/B,/E z/ E,/G,/C/ | %31
 F,/A,/D z/ ^F,/A,/D/ G,/F,/G,/A,/ B,/A,/B,/G,/ | C/B,/C/D/[K:treble] E/D/E/C/ F/E/D/E/ ^F/E/F/D/ | %33
 G/=F/E/D/ .C.C .D.D.E.E | .F.F.C.C .D.D.E.E | .F.F.C.C .D.D.G,.G, | .E.F.G.E F4 | .E.F.G.E F4 | %38
 .E.F.G.E E2 z2 | D/F/D/F/ D/F/D/F/ D2 z2 | C/E/C/E/ C/E/C/E/ C2 z2 | %41
 B,/D/B,/D/ B,/D/B,/D/ C2 C/B,/A,/G,/ | E/D/C/B,/ A,/G,/F,/E,/ C/B,/A,/G,/ F,/E,/D,/C,/ | %43
 A,/G,/^F,/E,/ ^D,/E,/D,/E,/ D,2 x2 | x8 | ^D,/^F,/F,/B,,/ z[K:treble] B Bc ^FA | %46
 G2 z/ x3/2 A_B EG | z/ .A/.d/.A/ .d/.A/.d/.A/ .^c/.A/.c/.A/ .c/.A/.c/.A/ | %48
 .d/.A/.d/.A/ .d/.A/.d/.A/ .e/.A/.e/.A/ .e/.A/.e/.A/ | %49
 .f/.A/.f/.A/ .f/.A/.f/.A/ .e/.A/.e/.A/ .e/.A/.e/.A/ | d/D/F/G/ A/G/F/E/ D[K:bass] D,F,A, | %51
 D2 ^C2 D/=C/_B,/A,/ G,/F,/E,/D,/ | A,A,, A,,=B,,/^C,/ D,D,/E,/ F,F,/G,/ | %53
 A,A,, A,,=B,,/^C,/ D,D,/E,/ F,F,/G,/ | %54
 A,/[K:treble] .a/.e/.a/ .^c/.a/.e/.a/ .c/.a/.e/.a/ .c/.a/.e/.a/ | %55
 .d/.a/.f/.a/ .d/.a/.f/.a/ .d/.a/.f/.a/ .d/.a/.f/.a/ | %56
 .d/._b/.f/.b/ .d/.b/.f/.b/ .d/.b/.f/.b/ .d/.b/.f/.b/ | %57
 .c/._b/.e/.b/ .c/.b/.e/.b/ .c/.b/.e/.b/ .c/.b/.e/.b/ | %58
 .c/.a/.f/.a/ .c/.a/.f/.a/ .c/.a/.f/.a/ .c/.a/.f/.a/ | %59
 ._B/.a/.f/.a/ .B/.a/.f/.a/ .B/.a/.f/.a/ .B/.a/.f/.a/ | %60
 ._B/.g/.d/.g/ .B/.g/.d/.g/ .B/.g/.d/.g/ .B/.g/.d/.g/ | ^cA z[K:bass] ^C D4- | D8- | D8- | D6 z C | %65
 D2 B,2 C2 z2 | A2 z A D2 z D | A2 z A D2 z D | C/ z/ z z2[K:bass] E2 E2 | E2 z C B,>A, ^G,A,/B,/ | %70
 CC/D/ EC B,>A, ^G,A,/B,/ | CC/D/ EE[K:treble] .e/.^d/.e/.B/ .e/.d/.e/.B/ | %72
 .e/.^d/.e/.B/ .e/.d/.e/.B/ .e/.=d/.e/.c/ .e/.d/.e/.c/ | %73
 .e/.d/.e/.c/ .e/.d/.e/.c/ .f/.e/.f/.c/ .f/.e/.f/.c/ | %74
 .f/.e/.f/.c/ .f/.e/.f/.c/ .f/.e/.f/.B/ .f/.e/.f/.B/ | %75
 .f/.e/.f/.B/ .f/.e/.f/.B/ .f/.e/.f/.B/ .f/.e/.f/.B/ | %76
 .f/.e/.f/.B/ .f/.e/.f/.B/ .f/.e/.f/.A/ .f/.e/.f/.A/ | %77
 .f/.e/.f/.A/ .f/.e/.f/.A/ .d/.c/.d/.A/ .d/.c/.d/.A/ | .d/.c/.d/.A/ .d/.c/.d/.A/ BE E/F/E | %79
 z E E/F/E z E E/F/E | z E E/F/E DAFD | D/E/D/E/ D/E/D/E/ CGEC | C/D/C/D/ C/D/C/D/ B,FDB, | %83
[K:bass] B,/C/B,/C/ B,/C/B,/C/ C2 z C | _B,4 B,4 | A,3 =C =B,2 z C | %86
 B,2 B,2[K:treble] z/ .E/.A/.E/ .A/.E/.A/.E/ | %87
 .^G/.E/.G/.E/ .G/.E/.G/.E/ .A/.E/.A/.E/ .A/.E/.A/.E/ | %88
 .B/.E/.B/.E/ .B/.E/.B/.E/ .c/.E/.c/.E/ .c/.E/.c/.E/ | %89
 .B/.E/.B/.E/ .B/.E/.B/.E/ A/A,/C/D/ E/D/C/B,/ | A,2[K:bass] z C _B,4 | _B,4 A,3 C | %92
 =B,2 z C B,2 B,2 | [E,A,]8 |] %94
V:4
 .A,2 .B,2 .A,2 x2 | x8 | x6 EC | B,B,B,B,[K:treble] z CCC | z B,B,B, z CCC | %5
 .C.C.C.C .B,.B,.B,.B, | .B,.B,.B,.B, .A,.A,.A,.A, | .A,.A,.A,.A,[K:bass] .^G,.G,.G,.G, | %8
 A,3 F, ^G,4- | G,8- | G,8- | G,6 z A, | B,2 x5 A, | F,4 G,4 | E,3 A, E,2 z A, | F,D, E,2 .E,2 z2 | %16
[K:treble] x8 | x8 | x6[K:bass] x2 | x8 | x8 | x7 A, | F,4 =G,4 | E,3 A, E,2 z A, | %24
 F,D, E,2 .A,2 x2 | x8 | x8 | x8 | x8 | x8 | x8 | x8 | x2[K:treble] x6 | x8 | x8 | x8 | %36
 C4 .A,.B,.C.A, | C4 .A,.B,.C.A, | C4 C2 x2 | B,B,B,B, B,2 z2 | A,A,A,A, A,2 z2 | G,G,G,G, G,2 x2 | %42
 x8 | x8 | x8 | x3[K:treble] ^F E/^D/E B,2 | B,2 x/ =G/=F/E/ =D/^C/D A,2 | A, x7 | x8 | x8 | %50
 x5[K:bass] x3 | x8 | x8 | x8 | x/[K:treble] x15/2 | x8 | x8 | x8 | x8 | x8 | x8 | %61
 x3[K:bass] A, ^G,4- | G,8- | G,8- | G,6 z A, | B,2 B,2 [E,A,]2 z2 | x8 | x8 | x4[K:bass] A,2 B,2 | %69
 A,2 x6 | x8 | x4[K:treble] x4 | x8 | x8 | x8 | x8 | x8 | x8 | x5 B,B,B, | z CCC z B,B,B, | %80
 z CCC CCCC | B,B,B,B, B,B,B,B, | A,A,A,A, A,A,A,A, |[K:bass] ^G,G,G,G, A,2 x A, | F,4 G,4 | %85
 E,3 A, E,2 z A, | F,D, E,2[K:treble] A, z x2 | x8 | x8 | x8 | x2[K:bass] x A, F,4 | G,4 E,3 A, | %92
 E,2 z A, F,D, E,2 | x8 |] %94
V:5
 .A,,2 .E,2 .A,,2 z A, | ^G,>^F, E,D, C,>B,, A,,A, | ^G,>^F, E,D, C,>B,, A,,A, | %3
 ^G,E,G,E, A,A,,C,A,, | E,E,^G,E, A,A,,C,A,, | D,2 D,2 =G,2 G,,2 | C,2 C,2 F,2 F,,2 | %7
 B,,2 B,,2 E,2 E,,2 | z A,,C,A,, E,4- | E,8- | E,8- | E,6 z A, | D,2 E,2 A,,B,,C,A,, | D,4 ^C,4 | %14
 =C,3 D, E,D,C,A,, | D,B,,E,.E,, .A,,2 z2 | z8 | z8 | z8 | z8 | z8 | z4 A,,B,,C,A,, | D,4 ^C,4 | %23
 =C,3 D, E,D,C,A,, | D,B,,E,.E,, .A,,2 z2 | z8 | z8 | z8 | z8 | z8 | z8 | z8 | z8 | z8 | z8 | z8 | %36
 C,D,E,C, F,G,A,F, | C,D,E,C, F,G,A,F, | C,D,E,C, F,2 z2 | B,,2 B,2 E,2 z2 | A,,2 A,2 D,2 z2 | %41
 G,,2 G,2 C,2 z2 | CC, z C, CC, z C, | CC, z C, B,B,, z B,, | B,B,, z B,, B,B,, z B,, | %45
 B,B,, z ^D, E,A,B,B,, | =C,2 z ^C, =D,G,A,A,, | D,2 z2 z4 | z8 | z8 | z8 | z8 | z8 | z8 | %54
 z .A,.A,.A, .A,.A,.A,.A, | .D.D.D.D .D.D.D.D | ._B,.B,.B,.B, .B,.B,.B,.B, | .C.C.C.C .C.C.C.C | %58
 .F,.F,.F,.F, .F,.F,.F,.F, | .D.D.D.D .D.D.D.D | .G,.G,.G,.G, .G,.G,.G,.G, | A,A,,^C,A,, E,4- | %62
 E,8- | E,8- | E,6 z A, | D,2 E,2 A,,2 z2 | z8 | z8 | z4 A,,2 E,2 | A,,2 z A, ^G,>^F, E,D, | %70
 C,>B,, A,,A, ^G,>^F, E,D, | C,>B,, A,,A, .^G,.G,.G,.G, | .E,.E,.E,.E, .A,.A,.A,.A, | %73
 .A,.A,.A,.A, .A,.A,.A,.A, | .A,.A,.A,.A, .G,.G,.G,.G, | .G,.G,.G,.G, .G,.G,.G,.G, | %76
 .G,.G,.G,.G, .F,.F,.F,.F, | .F,.F,.F,.F, .F,.F,.F,.F, | .F,.F,.F,.F, E,E,^G,E, | %79
 A,A,,C,A,, E,E,^G,E, | A,A,,C,A,, D,2 D,2 | =G,2 G,,2 C,2 C,2 | F,2 F,,2 B,,2 B,,2 | %83
 E,2 E,,2 A,A,,C,A,, | D,4 ^C,4 | =C,3 D, E,D,C,A,, | D,B,,E,.E,, A,, z z2 | z8 | z8 | z8 | %90
 A,,B,,C,A,, D,4 | ^C,4 =C,3 D, | E,D,C,A,, D,B,,E,.E,, | A,,8 |] %94
V:6
 x8 | x8 | x8 | x8 | x8 | x8 | x8 | x8 | x3 A B4- | B8- | B8- | B6 z c | [Bd]2 [Bd]2 [Ac]2 x2 | %13
 x8 | x8 | x4 .A2 x2 | x8 | x8 | x8 | x8 | x8 | x8 | x8 | x8 | x4 .E2 x2 | x8 | x8 | x8 | x8 | x8 | %30
 x8 | x8 | x8 | x8 | x8 | x8 | x8 | x8 | x8 | x8 | x8 | x8 | x8 | x8 | x8 | x8 | x2 z e x4 | x8 | %48
 x8 | x8 | x8 | x8 | x8 | x8 | x8 | x8 | x8 | x8 | x8 | x8 | x8 | x2[K:treble] z A =B4- | B8- | %63
 B8- | B6 z [Ac] | [Bd]2 [Bd]2 A2 x2 | x8 | x8 | x8 | x8 | x8 | x4 B,[K:treble+8] x3 | x8 | x8 | %74
 x8 | x8 | x8 | x8 | x5[K:treble] x3 | x8 | x8 | x8 | x8 | x8 | x8 | x8 | x8 | x8 | x8 | x8 | x8 | %91
 x8 | x8 | x8 |] %94
V:7
 x8 | x8 | x8 | x4[K:treble] x4 | x8 | x8 | x8 | x4[K:bass] x4 | x8 | x8 | x8 | x8 | x8 | x8 | x8 | %15
 x8 |[K:treble] x8 | x8 | x6[K:bass] x2 | x8 | x8 | x8 | x8 | x8 | x8 | x8 | x8 | x8 | x8 | x8 | %30
 x8 | x8 | x2[K:treble] x6 | x8 | x8 | x8 | x8 | x8 | x8 | x8 | x8 | x8 | x8 | x8 | x8 | %45
 x2 B,,[K:treble] x5 | x8 | F x7 | x8 | x8 | x5[K:bass] x3 | x8 | x8 | x8 | x/[K:treble] x15/2 | %55
 x8 | x8 | x8 | x8 | x8 | x8 | x3[K:bass] x5 | x8 | x8 | x8 | x8 | x8 | x8 | x4[K:bass] x4 | x8 | %70
 x8 | x4[K:treble] x4 | x8 | x8 | x8 | x8 | x8 | x8 | x8 | x8 | x8 | x8 | x8 |[K:bass] x8 | x8 | %85
 x8 | x4[K:treble] x4 | x8 | x8 | x8 | x2[K:bass] x6 | x8 | x8 | x8 |] %94

